X: 16030
T: Green Cake, The
R: reel
M: 4/4
K: Gmajor
|:G2FG BGBc|dggf d2 cB|c3B cedc|BdcB cAFD|
G2FG BGBc|dggf d2 cA|B3c dgfd|cAFD G2 DF:|
G3d dcdB|F3d dcdB|E3d dcdB|c2 ce dcBA|
G3d dcdB|F3d dcdB|E2 gf g3f|dggf gdcB|
G3d dcdB|F3d dcdB|E3d dcdB|c2 ce dcBc|
G2FG BGBc|dggf d2 cA|B3c dgfd|cAFD G4||

